X:1
T:Title
%%score 1 { 2 | 3 }
L:1/8
Q:1/4=96
M:4/4
K:Eb
V:1 treble nm="Grand Piano, Soprano"
V:2 bass nm="Choir Pad, The Morning Light"
V:3 bass 
V:1
 [EB] [EB]2 [EG]- [EG] E3 | [EF][EG][FA][GB] [Ac] [GB]2 [EG] | %2
w: By~James~Ramsey~Murray * * * *||
 [DF] [EG]2 [DF]- [DF][B,D][B,D][B,D] | E[DF][EG][FA] [DB] [EA]3 | [EB] [EB]2 [EG]- [EG] E3 | %5
w: |||
 [EF][EG][FA][GB] [Ac] [GB]2 [EG] | [EB] [Ee]2 [Ec]- [Ec] [EB]3 | [EG][GB][FA][EG] [DF] E3 | %8
w: |||
 [EG] [DF]2 [EG]- [EG] [FA]3 | [FA][FA][FA][EG] [DF] [EG]2 [EB] | %10
w: ||
 [EG] [FB]2 [Fc]- [Fc][Fd][Gd][Ff] | [Ge][Fd][DB][Ec] [C=A] [DB]3 | [DB] [EB]2 [EG]- [EG] E3 | %13
w: |||
 [EF][EG][FA][GB] [Ac] [GB]2 [EG] | [EB] [Ee]2 [Ec]- [Ec] [EB]3 | [EG][GB][FA][EG] [DF] E3- | %16
w: |||
 E4 z4 |] %17
w: |
V:2
 G, G,2 B,- B, G,3 | A,B,[K:treble]EE E E2 B, | B, B,2 B,- B,B,B,B, | B,B,B,B, B, B,3 | %4
 G, G,2 B,- B, G,3 | A,B,[K:treble]EE E E2 B, | G, C2 A,- A, G,3 | B,B,B,B, A, G,3 | %8
 B, B,2 B,- B, B,3 | B,B,B,B, B, B,2 G, | B, B,2 =A,- A,B,B,B, | B,B,B,F, F, F,3 | %12
 A, G,2 B,- B, G,3 | A,B,[K:treble]EE E E2 B, | G, C2 A,- A, G,3 | B,B,B,B, A, G,3- | G,4 z4 |] %17
V:3
 E, E,2 E,- E, E,3 | E,E,E,E, E, E,2 E, | E, B,,2 B,,- B,,B,,B,,A, | G,F,E,D, B,, E,3 | %4
 E, E,2 E,- E, E,3 | E,E,E,E, E, E,2 E, | E, A,,2 C,- C, E,3 | E,B,,B,,B,, B,, E,3 | %8
 E, B,,2 B,,- B,, B,,3 | B,,B,,B,,B,, B,, E,2 E, | E, D,2 F,- F, z G,D, | E,F, .F,2 z B,,3 | %12
 B,, E,2 E,- E, E,3 | E,E,E,E, E, E,2 E, | E, A,,2 C,- C, E,3 | E,B,,B,,B,, B,, E,3- | E,4 z4 |] %17

